public/img/social_media_icons/twitter-round.svg

<?xml version="1.0" encoding="UTF-8"?>
<svg width="50px" height="50px" viewBox="0 0 50 50" version="1.1" xmlns="http://www.w3.org/2000/svg" xmlns:xlink="http://www.w3.org/1999/xlink">
    <!-- Generator: Sketch 51.1 (57501) - http://www.bohemiancoding.com/sketch -->
    <title>icon / social / twitter / gray</title>
    <desc>Created with Sketch.</desc>
    <defs></defs>
    <g id="Page-1" stroke="none" stroke-width="1" fill="none" fill-rule="evenodd">
        <g id="Subscription-Confirmation" transform="translate(-616.000000, -559.000000)" fill="#FFFFFF">
            <g id="Confirmed" transform="translate(204.000000, 258.000000)">
                <g id="Share" transform="translate(333.000000, 301.000000)">
                    <g id="icon-/-social-/-twitter-/-gray" transform="translate(79.000000, 0.000000)">
                        <path d="M25,50 C11.1928813,50 0,38.8071187 0,25 C0,11.1928813 11.1928813,0 25,0 C38.8071187,0 50,11.1928813 50,25 C50,38.8071187 38.8071187,50 25,50 Z M32.2,18.9178947 C32.1810526,18.9115789 32.1684211,18.8926316 32.1494737,18.88 C31.2526316,18.0336842 30.1978947,17.6294737 28.9852632,17.68 L28.9473684,17.5915789 C28.96,17.5852632 28.9663158,17.5852632 28.9726316,17.5852632 C30.0715789,17.3263158 30.7221053,17.0673684 30.9178947,16.7831579 C30.9873684,16.5557895 30.9052632,16.4294737 30.6652632,16.3978947 C30.1094737,16.4673684 29.5978947,16.5873684 29.1431579,16.7705263 C29.7242105,16.3978947 29.9452632,16.1326316 29.8189474,16 C29.2505263,16.0189474 28.6378947,16.3094737 27.9936842,16.8842105 C28.2336842,16.4736842 28.3221053,16.2526316 28.2589474,16.2147368 C27.9557895,16.4294737 27.6842105,16.6568421 27.4568421,16.9031579 C26.9705263,17.4463158 26.5789474,17.9515789 26.2821053,18.4126316 L26.2631579,18.4505263 C25.4926316,19.7136842 24.9557895,20.9768421 24.6336842,22.2652632 L24.5136842,22.36 L24.4884211,22.3852632 C24.0273684,21.7978947 23.4715789,21.3115789 22.8084211,20.9136842 C22.0252632,20.3957895 21.1031579,19.9094737 20.0421053,19.4357895 C18.88,18.8357895 17.7052632,18.3368421 16.5178947,17.9452632 C16.5115789,19.2842105 17.1621053,20.3515789 18.4568421,21.1284211 L18.4568421,21.1536842 C17.9957895,21.1410526 17.5536842,21.2168421 17.1305263,21.3494737 C17.2126316,22.5936842 18.0905263,23.4463158 19.7452632,23.92 L19.7389474,23.9452632 C19.0884211,23.9073684 18.5515789,24.1347368 18.1347368,24.6084211 C18.6778947,25.6821053 19.6442105,26.2 21.04,26.1557895 C20.7684211,26.3010526 20.5473684,26.4589474 20.4084211,26.6357895 C20.1494737,26.9010526 20.0673684,27.2168421 20.1494737,27.5831579 C20.4526316,28.1263158 20.9894737,28.3789474 21.7852632,28.3410526 L21.8294737,28.3978947 L21.8042105,28.4231579 C20.4336842,29.8442105 18.7852632,30.4884211 16.8463158,30.3494737 L16.8147368,30.3684211 C15.6336842,30.3621053 14.3705263,29.7873684 13,28.6505263 C14.3768421,30.6463158 16.2021053,32.0863158 18.4631579,32.9894737 C21.0526316,33.8484211 23.6357895,33.9115789 26.2189474,33.1726316 L26.2631579,33.1726316 C28.7705263,32.4463158 30.8926316,30.9494737 32.6484211,28.6884211 C33.4568421,27.5010526 33.9621053,26.3705263 34.1642105,25.2905263 C35.4715789,25.3347368 36.4189474,24.9557895 37,24.1473684 L36.9873684,24.1284211 C36.5515789,24.28 35.6989474,24.2357895 34.4357895,23.9768421 L34.4357895,23.8315789 C34.4357895,23.8252632 34.4357895,23.8252632 34.4421053,23.8315789 C35.8252632,23.6736842 36.64,23.2252632 36.9052632,22.48 C35.9389474,22.8589474 34.9852632,22.8652632 34.0442105,22.5115789 C33.8736842,21.1978947 32.2610526,20.0042105 31.2,18.9178947 L32.2,18.9178947 Z" id="Combined-Shape"></path>
                    </g>
                </g>
            </g>
        </g>
    </g>
</svg>

<svg width="50" height="50" xmlns="http://www.w3.org/2000/svg"><path d="M25 50C11.193 50 0 38.807 0 25S11.193 0 25 0s25 11.193 25 25-11.193 25-25 25zm7.2-31.082c-.019-.006-.032-.025-.05-.038-.897-.846-1.952-1.25-3.165-1.2l-.038-.088c.013-.007.02-.007.026-.007 1.099-.259 1.75-.518 1.945-.802.07-.227-.013-.354-.253-.385-.556.07-1.067.19-1.522.373.581-.373.802-.638.676-.771-.568.019-1.181.31-1.825.884.24-.41.328-.631.265-.67a5.09 5.09 0 0 0-.802.69 12.262 12.262 0 0 0-1.175 1.509l-.019.038c-.77 1.263-1.307 2.526-1.63 3.814l-.12.095-.025.025a6.082 6.082 0 0 0-1.68-1.471c-.783-.518-1.705-1.005-2.766-1.478a24.22 24.22 0 0 0-3.524-1.49c-.006 1.338.644 2.406 1.939 3.182v.026a4.042 4.042 0 0 0-1.326.195c.082 1.245.96 2.097 2.614 2.571l-.006.025c-.65-.038-1.187.19-1.604.663.543 1.074 1.51 1.592 2.905 1.548-.272.145-.493.303-.632.48-.259.265-.34.58-.259.947.304.543.84.796 1.636.758l.044.057-.025.025c-1.37 1.421-3.019 2.065-4.958 1.926l-.031.02c-1.181-.007-2.444-.582-3.815-1.718 1.377 1.995 3.202 3.435 5.463 4.338 2.59.86 5.173.923 7.756.184h.044c2.508-.727 4.63-2.224 6.385-4.485.809-1.187 1.314-2.317 1.516-3.397 1.308.044 2.255-.335 2.836-1.144l-.013-.019c-.435.152-1.288.108-2.551-.151v-.145c0-.007 0-.007.006 0 1.383-.158 2.198-.607 2.463-1.352-.966.379-1.92.385-2.86.032-.171-1.314-1.784-2.508-2.845-3.594h1z" fill="#FFF" fill-rule="evenodd"/></svg>
